source/elements/MoveForward.svg

<svg width="24" height="24" viewBox="0 0 24 24" fill="none" xmlns="http://www.w3.org/2000/svg">
<g clip-path="url(#clip0_8058_97)">
<path d="M9 10.1113H6.11133V17.8887H13.8887V15H15V19H5V9H9V10.1113Z" fill="#0C111D" data-dark-mode-fill-color="true"/>
<path d="M19 15H9V5H19V15ZM14.2354 7.76465C14.1214 7.6507 13.9458 7.63613 13.8164 7.72168L13.7646 7.76465L11.7646 9.76465C11.6345 9.89482 11.6345 10.1052 11.7646 10.2354C11.8948 10.3655 12.1052 10.3655 12.2354 10.2354L13.667 8.80371V12C13.667 12.1841 13.8159 12.333 14 12.333C14.1841 12.333 14.333 12.1841 14.333 12V8.80371L15.7646 10.2354L15.8164 10.2783C15.9458 10.3639 16.1214 10.3493 16.2354 10.2354C16.3493 10.1214 16.3639 9.94581 16.2783 9.81641L16.2354 9.76465L14.2354 7.76465Z" fill="#0C111D" data-dark-mode-fill-color="true"/>
</g>
<defs>
<clipPath id="clip0_8058_97">
<rect width="24" height="24" fill="white"/>
</clipPath>
</defs>
</svg>

<svg width="24" height="24" viewBox="0 0 24 24" fill="none" xmlns="http://www.w3.org/2000/svg">
  <path
    d="M9 10.11H6.11v7.78h7.78V15H15v4H5V9h4v1.11z"
    fill="currentColor"
    data-dark-mode-color="true"
  />
  <path
    d="M19 15H9V5h10v10zm-4.76-7.24a.33.33 0 00-.48 0l-2 2a.33.33 0 00.47.47L13.67 8.8V12c0 .18.15.33.33.33s.33-.15.33-.33V8.8l1.43 1.44a.33.33 0 00.47-.47l-2-2z"
    fill="currentColor"
    data-dark-mode-color="true"
  />
</svg>
